tools/download-figma-icons/icons/action/twitter.svg

<svg width="24" height="24" viewBox="0 0 24 24" fill="none" xmlns="http://www.w3.org/2000/svg">
<path fill-rule="evenodd" clip-rule="evenodd" d="M22.706 3.66659L20.9248 4.72485C20.3713 5.05489 19.774 5.3032 19.1496 5.46517C17.7933 4.28425 15.8744 4.00419 14.2381 4.74751C12.602 5.49091 11.5496 7.12296 11.5451 8.92287C9.05614 8.55952 6.79263 7.27569 5.20171 5.32264L4.48346 4.44152L3.91036 5.42564C3.2375 6.5869 3.1029 7.98275 3.54292 9.24993L3.28133 9.10459L3.25713 10.4157V10.4778C3.25865 11.5103 3.60643 12.5126 4.24606 13.3226L4.62862 14.5171C5.00211 15.6843 5.82621 16.6548 6.91793 17.2104C6.06207 17.5768 5.13968 17.7661 4.20822 17.7631C3.93605 17.7631 3.66389 17.7479 3.39317 17.7161L0 17.3149L2.87604 19.1604C4.74195 20.361 6.91346 20.9969 9.12997 20.9969C12.4248 21.071 15.5821 19.6797 17.7532 17.1983C19.6539 15.0333 20.7124 12.2552 20.7366 9.37238V9.26186V9.26338C21.4155 8.71836 22.0067 8.07339 22.4906 7.3482L23.9996 5.08935L21.9432 6.00228C21.9916 5.8857 22.0354 5.76609 22.0747 5.64347L22.7058 3.66622L22.706 3.66659Z" fill="black"/>
</svg>

<svg width="24" height="24" viewBox="0 0 24 24" fill="none" xmlns="http://www.w3.org/2000/svg"><path fill-rule="evenodd" clip-rule="evenodd" d="m22.706 3.667-1.781 1.058a6.807 6.807 0 0 1-1.775.74 4.588 4.588 0 0 0-4.912-.717 4.598 4.598 0 0 0-2.693 4.175 10.055 10.055 0 0 1-6.343-3.6l-.719-.881-.573.984a4.61 4.61 0 0 0-.367 3.824l-.262-.145-.024 1.31v.063a4.6 4.6 0 0 0 .99 2.845l.382 1.194a4.592 4.592 0 0 0 2.289 2.693 6.832 6.832 0 0 1-2.71.553c-.272 0-.544-.015-.815-.047L0 17.315l2.876 1.845a11.557 11.557 0 0 0 6.254 1.837 11.125 11.125 0 0 0 8.623-3.799 12.015 12.015 0 0 0 2.984-7.826v-.11.001a8.518 8.518 0 0 0 1.754-1.915L24 5.09l-2.057.913c.049-.116.092-.236.132-.359l.63-1.977h.001Z" fill="currentColor"/></svg>
